X:523
T:B523-  William and Margaret
S:(2nd/2) note tune is really Fm; Dm in Village Opera
Q:1/4=120
L:1/4
M:3/4
K:F dorian
c|(f{g/}a)g|(fc)=d|(cF)G|A2f|\
(=ef)c|(B3/2c/)A|{A/}(G3|G2)c|\
(Bc)G|(Af)e|(=dc)B|B2=d|\
(cf)G|(A3/2B/)G|(F3|F2)|]

